web/packages/design/src/ResourceIcon/assets/mailgun.svg

<svg width="72" height="72" viewBox="0 0 72 72" fill="none" xmlns="http://www.w3.org/2000/svg">
<g clip-path="url(#clip0_16907_4751)">
<path d="M35.9967 41.1457C38.8355 41.1457 41.1369 38.8443 41.1369 36.0054C41.1369 33.1666 38.8355 30.8652 35.9967 30.8652C33.1578 30.8652 30.8564 33.1666 30.8564 36.0054C30.8564 38.8443 33.1578 41.1457 35.9967 41.1457Z" fill="#EB5454"/>
<path d="M60.4216 39.8627C58.2928 39.8627 56.5645 38.1344 56.5645 36.0057C56.5645 24.6423 47.3522 15.4374 35.9963 15.4374C24.6404 15.4374 15.428 24.6497 15.428 36.0057C15.428 47.3616 24.6404 56.5739 35.9963 56.5739C43.8438 56.5739 50.6678 52.1829 54.1317 45.7149C58.6117 48.6225 64.6717 48.1107 68.6029 44.1796C70.8651 41.9173 71.9926 38.9578 71.9926 35.9982C71.9926 16.1198 55.8747 0.00195312 35.9963 0.00195312C16.1179 0.00195312 0 16.1272 0 36.0057C0 55.8841 16.1179 72.002 35.9963 72.002C45.9355 72.002 54.9401 67.9743 61.4526 61.4545L56.0008 56.0028C50.8829 61.1207 43.8142 64.2879 36.0037 64.2879C20.3828 64.2879 7.72144 51.6266 7.72144 36.0057C7.72144 20.3848 20.3754 7.72339 35.9963 7.72339C51.6172 7.72339 64.2786 20.3848 64.2786 36.0057C64.2786 38.1344 62.5503 39.8627 60.4216 39.8627ZM35.9963 48.8599C28.8979 48.8599 23.1421 43.104 23.1421 36.0057C23.1421 28.9073 28.8979 23.1514 35.9963 23.1514C43.0947 23.1514 48.8505 28.9073 48.8505 36.0057C48.8505 43.104 43.0947 48.8599 35.9963 48.8599Z" fill="#EB5454"/>
</g>
<defs>
<clipPath id="clip0_16907_4751">
<rect width="72" height="72" fill="white" transform="translate(0 0.00195312)"/>
</clipPath>
</defs>
</svg>

<svg xmlns="http://www.w3.org/2000/svg" width="72" height="72" fill="none" viewBox="0 0 72 72"><g fill="#eb5454" clip-path="url(#a)"><path d="M35.997 41.146a5.14 5.14 0 1 0 0-10.28 5.14 5.14 0 0 0 0 10.28"/><path d="M60.422 39.863a3.86 3.86 0 0 1-3.857-3.857c0-11.364-9.213-20.569-20.569-20.569S15.428 24.65 15.428 36.006s9.212 20.568 20.568 20.568c7.848 0 14.672-4.391 18.136-10.86 4.48 2.909 10.54 2.397 14.47-1.534a11.53 11.53 0 0 0 3.39-8.182C71.993 16.12 55.876.002 35.997.002S0 16.127 0 36.006s16.118 35.996 35.996 35.996c9.94 0 18.944-4.028 25.457-10.547L56 56.003c-5.118 5.118-12.187 8.285-19.997 8.285-15.621 0-28.283-12.661-28.283-28.282S20.375 7.723 35.996 7.723 64.28 20.385 64.28 36.006a3.86 3.86 0 0 1-3.857 3.857M35.996 48.86c-7.098 0-12.854-5.756-12.854-12.854 0-7.099 5.756-12.855 12.854-12.855 7.099 0 12.854 5.756 12.854 12.855 0 7.098-5.755 12.854-12.854 12.854"/></g><defs><clipPath id="a"><path fill="#fff" d="M0 .002h72v72H0z"/></clipPath></defs></svg>
